;FLAVOR:Marlin
;TIME:258
;Filament used: 0.171826m
;Layer height: 0.1
;MINX:96.407
;MINY:69.037
;MINZ:0.3
;MAXX:124.008
;MAXY:96.637
;MAXZ:3
;Generated with Cura_SteamEngine 5.0.0
M140 S60
M105
M190 S60
M104 S220
M105
M109 S220
M82 ;absolute extrusion mode
G28 ;Home
G1 Z15.0 F6000 ;Move the platform down 15mm
;Prime the extruder
G92 E0
G1 F200 E3
G92 E0
G92 E0
G92 E0
G1 F1500 E-6.5
;LAYER_COUNT:28
;LAYER:0
M107
G0 F3600 X97.803 Y72.384 Z0.3
G0 X96.407 Y76.838
;TYPE:SKIRT
G1 F1500 E0
G1 F1800 X96.447 Y76.05 E0.03936
G1 X96.566 Y75.269 E0.07878
G1 X96.764 Y74.504 E0.1182
G1 X97.038 Y73.764 E0.15757
G1 X97.385 Y73.055 E0.19695
G1 X97.803 Y72.384 E0.23639
G1 X98.286 Y71.76 E0.27576
G1 X98.83 Y71.187 E0.31518
G1 X99.428 Y70.672 E0.35455
G1 X100.076 Y70.221 E0.39394
G1 X100.766 Y69.837 E0.43334
G1 X101.492 Y69.525 E0.47276
G1 X102.245 Y69.288 E0.51214
G1 X103.018 Y69.128 E0.55153
G1 X103.804 Y69.047 E0.59095
G1 X104.207 Y69.037 E0.61106
G1 X111.208 Y69.037 E0.96034
G1 X111.997 Y69.077 E0.99975
G1 X112.777 Y69.196 E1.03912
G1 X113.542 Y69.394 E1.07854
G1 X114.282 Y69.668 E1.11791
G1 X114.991 Y70.016 E1.15731
G1 X115.662 Y70.434 E1.19675
G1 X116.286 Y70.917 E1.23612
G1 X116.723 Y71.322 E1.26585
G1 X121.723 Y76.322 E1.61862
G1 X122.253 Y76.908 E1.65804
G1 X122.72 Y77.544 E1.69741
G1 X123.121 Y78.224 E1.73679
G1 X123.451 Y78.942 E1.77622
G1 X123.706 Y79.689 E1.8156
G1 X123.885 Y80.458 E1.85499
G1 X123.985 Y81.242 E1.89442
G1 X124.008 Y81.837 E1.92413
G1 X124.008 Y88.837 E2.27336
G1 X123.968 Y89.626 E2.31277
G1 X123.849 Y90.406 E2.35214
G1 X123.651 Y91.171 E2.39156
G1 X123.377 Y91.911 E2.43093
G1 X123.029 Y92.62 E2.47033
G1 X122.611 Y93.291 E2.50977
G1 X122.128 Y93.915 E2.54914
G1 X121.585 Y94.488 E2.58852
G1 X120.986 Y95.003 E2.62794
G1 X120.338 Y95.454 E2.66732
G1 X119.647 Y95.838 E2.70676
G1 X118.922 Y96.15 E2.74614
G1 X118.169 Y96.387 E2.78552
G1 X117.395 Y96.546 E2.82495
G1 X116.61 Y96.627 E2.86432
G1 X116.208 Y96.637 E2.88438
G1 X109.984 Y96.634 E3.1949
G1 X109.19 Y96.598 E3.23455
G1 X108.371 Y96.513 E3.27563
G1 X107.59 Y96.385 E3.31511
G1 X106.805 Y96.209 E3.35525
G1 X106.027 Y95.987 E3.39561
G1 X105.267 Y95.72 E3.4358
G1 X104.541 Y95.418 E3.47503
G1 X103.815 Y95.065 E3.51531
G1 X103.126 Y94.68 E3.55468
G1 X102.429 Y94.235 E3.59594
G1 X101.78 Y93.762 E3.636
G1 X101.169 Y93.263 E3.67536
G1 X100.586 Y92.728 E3.71484
G1 X100.002 Y92.125 E3.75672
G1 X99.497 Y91.537 E3.79539
G1 X99.013 Y90.905 E3.8351
G1 X98.533 Y90.193 E3.87794
G1 X98.165 Y89.572 E3.91396
G1 X97.764 Y88.799 E3.9574
G1 X97.455 Y88.104 E3.99535
G1 X97.168 Y87.349 E4.03564
G1 X96.92 Y86.555 E4.07714
G1 X96.736 Y85.82 E4.11495
G1 X96.58 Y84.997 E4.15674
G1 X96.477 Y84.193 E4.19718
G1 X96.422 Y83.404 E4.23663
G1 X96.408 Y82.838 E4.26488
G1 X96.407 Y76.838 E4.56422
G0 F3600 X96.807 Y76.838
G1 F1800 X96.847 Y76.07 E4.60259
G1 X96.966 Y75.31 E4.64097
G1 X97.164 Y74.567 E4.67933
G1 X97.437 Y73.848 E4.7177
G1 X97.784 Y73.162 E4.75605
G1 X98.2 Y72.515 E4.79443
G1 X98.682 Y71.915 E4.83283
G1 X99.222 Y71.368 E4.87117
G1 X99.817 Y70.88 E4.90957
G1 X100.459 Y70.456 E4.94795
G1 X101.142 Y70.102 E4.98633
G1 X101.857 Y69.82 E5.02468
G1 X102.598 Y69.614 E5.06305
G1 X103.357 Y69.486 E5.10145
G1 X104.207 Y69.437 E5.14393
G1 X111.208 Y69.437 E5.49321
G1 X111.976 Y69.477 E5.53157
G1 X112.736 Y69.596 E5.56995
G1 X113.479 Y69.794 E5.60831
G1 X114.198 Y70.068 E5.6467
G1 X114.884 Y70.415 E5.68506
G1 X115.531 Y70.831 E5.72343
G1 X116.131 Y71.312 E5.7618
G1 X116.441 Y71.604 E5.78304
G1 X121.441 Y76.604 E6.13582
G1 X121.955 Y77.176 E6.17419
G1 X122.408 Y77.798 E6.21258
G1 X122.794 Y78.463 E6.25094
G1 X123.109 Y79.165 E6.28932
G1 X123.349 Y79.896 E6.32771
G1 X123.512 Y80.647 E6.36605
G1 X123.596 Y81.412 E6.40444
G1 X123.608 Y81.837 E6.42566
G1 X123.608 Y88.837 E6.77489
G1 X123.568 Y89.605 E6.81326
G1 X123.449 Y90.365 E6.85163
G1 X123.251 Y91.108 E6.89
G1 X122.977 Y91.827 E6.92838
G1 X122.63 Y92.513 E6.96674
G1 X122.214 Y93.16 E7.00511
G1 X121.733 Y93.76 E7.04348
G1 X121.192 Y94.307 E7.08186
G1 X120.597 Y94.795 E7.12025
G1 X119.955 Y95.218 E7.15861
G1 X119.272 Y95.573 E7.19701
G1 X118.557 Y95.854 E7.23534
G1 X117.815 Y96.06 E7.27376
G1 X117.057 Y96.188 E7.31211
G1 X116.208 Y96.237 E7.35454
G1 X109.995 Y96.234 E7.66451
G1 X109.224 Y96.2 E7.70301
G1 X108.43 Y96.117 E7.74284
G1 X107.671 Y95.993 E7.78121
G1 X106.908 Y95.823 E7.82021
G1 X106.153 Y95.607 E7.85938
G1 X105.415 Y95.349 E7.89839
G1 X104.71 Y95.055 E7.9365
G1 X104.005 Y94.713 E7.97559
G1 X103.336 Y94.339 E8.01383
G1 X102.659 Y93.907 E8.05389
G1 X102.028 Y93.449 E8.09279
G1 X101.435 Y92.964 E8.13101
G1 X100.868 Y92.444 E8.1694
G1 X100.302 Y91.859 E8.21001
G1 X99.811 Y91.288 E8.24758
G1 X99.341 Y90.675 E8.28611
G1 X98.875 Y89.985 E8.32765
G1 X98.517 Y89.381 E8.36268
G1 X98.127 Y88.631 E8.40486
G1 X97.826 Y87.956 E8.44173
G1 X97.548 Y87.223 E8.48084
G1 X97.307 Y86.453 E8.52109
G1 X97.128 Y85.738 E8.55787
G1 X96.976 Y84.939 E8.59844
G1 X96.876 Y84.159 E8.63768
G1 X96.821 Y83.391 E8.67609
G1 X96.808 Y82.838 E8.70369
G1 X96.807 Y76.838 E9.00303
G0 F3600 X97.207 Y76.838
G1 F1800 X97.247 Y76.091 E9.04035
G1 X97.366 Y75.353 E9.07764
G1 X97.564 Y74.631 E9.11499
G1 X97.837 Y73.935 E9.15229
G1 X98.183 Y73.272 E9.1896
G1 X98.598 Y72.649 E9.22695
G1 X99.077 Y72.074 E9.26429
G1 X99.614 Y71.554 E9.30158
G1 X100.204 Y71.094 E9.33891
G1 X100.84 Y70.7 E9.37623
G1 X101.514 Y70.376 E9.41354
G1 X102.219 Y70.125 E9.45088
G1 X102.947 Y69.951 E9.48822
G1 X103.689 Y69.856 E9.52554
G1 X104.207 Y69.837 E9.5514
G1 X111.208 Y69.837 E9.90068
G1 X111.955 Y69.877 E9.938
G1 X112.693 Y69.996 E9.9753
G1 X113.415 Y70.194 E10.01265
G1 X114.111 Y70.467 E10.04995
G1 X114.774 Y70.814 E10.08728
G1 X115.397 Y71.229 E10.12463
G1 X116.158 Y71.887 E10.17482
G1 X121.158 Y76.887 E10.52759
G1 X121.658 Y77.444 E10.56494
G1 X122.095 Y78.05 E10.60221
G1 X122.466 Y78.7 E10.63955
G1 X122.765 Y79.386 E10.67689
G1 X122.989 Y80.1 E10.71422
G1 X123.136 Y80.833 E10.75152
G1 X123.208 Y81.837 E10.80173
G1 X123.208 Y88.837 E11.15097
G1 X123.168 Y89.584 E11.18829
G1 X123.049 Y90.322 E11.22558
G1 X122.851 Y91.044 E11.26293
G1 X122.578 Y91.74 E11.30023
G1 X122.231 Y92.403 E11.33757
G1 X121.816 Y93.026 E11.37491
G1 X121.337 Y93.6 E11.41221
G1 X120.8 Y94.121 E11.44954
G1 X120.21 Y94.58 E11.48683
G1 X119.574 Y94.975 E11.52418
G1 X118.9 Y95.299 E11.56149
G1 X118.195 Y95.549 E11.59881
G1 X117.467 Y95.723 E11.63615
G1 X116.725 Y95.818 E11.67348
G1 X116.208 Y95.837 E11.69929
G1 X110.007 Y95.834 E12.00866
G1 X109.259 Y95.801 E12.04601
G1 X108.488 Y95.722 E12.08468
G1 X107.752 Y95.602 E12.12188
G1 X107.012 Y95.437 E12.15971
G1 X106.279 Y95.228 E12.19773
G1 X105.563 Y94.977 E12.23559
G1 X104.879 Y94.692 E12.27255
G1 X104.195 Y94.361 E12.31046
G1 X103.545 Y93.998 E12.34761
G1 X102.889 Y93.58 E12.38641
G1 X102.277 Y93.135 E12.42417
G1 X101.701 Y92.665 E12.46126
G1 X101.15 Y92.161 E12.49851
G1 X100.601 Y91.594 E12.53789
G1 X100.124 Y91.04 E12.57436
G1 X99.668 Y90.445 E12.61176
G1 X99.217 Y89.777 E12.65197
G1 X98.868 Y89.189 E12.68608
G1 X98.49 Y88.464 E12.72687
G1 X98.198 Y87.808 E12.7627
G1 X97.927 Y87.097 E12.80066
G1 X97.693 Y86.35 E12.83971
G1 X97.519 Y85.656 E12.87541
G1 X97.371 Y84.882 E12.91472
G1 X97.274 Y84.125 E12.9528
G1 X97.221 Y83.379 E12.99011
G1 X97.208 Y82.838 E13.01711
G1 X97.207 Y76.838 E13.31645
G0 F3600 X97.607 Y76.838
G1 F1800 X97.647 Y76.113 E13.35268
G1 X97.766 Y75.396 E13.38894
G1 X97.963 Y74.697 E13.42517
G1 X98.236 Y74.024 E13.4614
G1 X98.582 Y73.385 E13.49765
G1 X98.995 Y72.788 E13.53387
G1 X99.472 Y72.24 E13.57012
G1 X100.005 Y71.747 E13.60634
G1 X100.59 Y71.316 E13.64259
G1 X101.219 Y70.952 E13.67885
G1 X101.884 Y70.659 E13.7151
G1 X102.576 Y70.442 E13.75128
G1 X103.289 Y70.301 E13.78755
G1 X104.207 Y70.237 E13.83346
G1 X111.208 Y70.237 E14.18274
G1 X111.933 Y70.277 E14.21896
G1 X112.65 Y70.396 E14.25522
G1 X113.349 Y70.594 E14.29147
G1 X114.022 Y70.867 E14.3277
G1 X114.661 Y71.212 E14.36393
G1 X115.258 Y71.626 E14.40018
G1 X115.875 Y72.17 E14.44121
G1 X120.875 Y77.17 E14.79399
G1 X121.359 Y77.711 E14.83021
G1 X121.782 Y78.302 E14.86647
G1 X122.136 Y78.936 E14.90269
G1 X122.419 Y79.605 E14.93893
G1 X122.627 Y80.301 E14.97517
G1 X122.757 Y81.016 E15.01143
G1 X122.808 Y81.837 E15.05247
G1 X122.808 Y88.837 E15.4017
G1 X122.768 Y89.562 E15.43793
G1 X122.649 Y90.279 E15.47419
G1 X122.451 Y90.978 E15.51043
G1 X122.178 Y91.651 E15.54667
G1 X121.833 Y92.29 E15.5829
G1 X121.419 Y92.887 E15.61914
G1 X120.943 Y93.435 E15.65535
G1 X120.409 Y93.928 E15.69161
G1 X119.824 Y94.358 E15.72784
G1 X119.195 Y94.722 E15.76409
G1 X118.53 Y95.015 E15.80035
G1 X117.837 Y95.233 E15.83659
G1 X117.125 Y95.373 E15.87279
G1 X116.208 Y95.437 E15.91865
G1 X110.018 Y95.434 E16.22747
G1 X109.293 Y95.403 E16.26368
G1 X108.547 Y95.326 E16.30109
G1 X107.833 Y95.21 E16.33718
G1 X107.115 Y95.05 E16.37388
G1 X106.406 Y94.848 E16.41066
G1 X105.711 Y94.606 E16.44738
G1 X105.047 Y94.33 E16.48325
G1 X104.385 Y94.009 E16.51996
G1 X103.754 Y93.657 E16.556
G1 X103.119 Y93.252 E16.59358
G1 X102.525 Y92.822 E16.63016
G1 X101.966 Y92.366 E16.66616
G1 X101.433 Y91.877 E16.70224
G1 X100.901 Y91.329 E16.74035
G1 X100.438 Y90.792 E16.77572
G1 X99.995 Y90.215 E16.81201
G1 X99.558 Y89.569 E16.85092
G1 X99.219 Y88.997 E16.8841
G1 X98.853 Y88.296 E16.92355
G1 X98.569 Y87.66 E16.9583
G1 X98.307 Y86.97 E16.99512
G1 X98.08 Y86.248 E17.03288
G1 X97.911 Y85.574 E17.06755
G1 X97.767 Y84.825 E17.1056
G1 X97.673 Y84.092 E17.14247
G1 X97.621 Y83.367 E17.17873
G1 X97.608 Y82.838 E17.20513
G1 X97.607 Y76.838 E17.50447
G0 F3600 X98.007 Y76.838
G1 F1800 X98.047 Y76.135 E17.5396
G1 X98.166 Y75.441 E17.57473
G1 X98.363 Y74.766 E17.60981
G1 X98.636 Y74.116 E17.64499
G1 X98.98 Y73.502 E17.6801
G1 X99.392 Y72.931 E17.71523
G1 X99.866 Y72.411 E17.75033
G1 X100.395 Y71.947 E17.78544
G1 X100.974 Y71.546 E17.82057
G1 X101.595 Y71.214 E17.85571
G1 X102.249 Y70.954 E17.89082
G1 X102.929 Y70.77 E17.92596
G1 X103.625 Y70.664 E17.96109
G1 X104.207 Y70.637 E17.99015
G1 X111.208 Y70.637 E18.33944
G1 X111.911 Y70.677 E18.37456
G1 X112.605 Y70.796 E18.40969
G1 X113.28 Y70.994 E18.44479
G1 X113.929 Y71.266 E18.4799
G1 X114.543 Y71.611 E18.51503
G1 X115.114 Y72.022 E18.55013
G1 X115.592 Y72.453 E18.58224
G1 X120.592 Y77.453 E18.93502
G1 X121.061 Y77.978 E18.97014
G1 X121.467 Y78.553 E19.00526
G1 X121.805 Y79.171 E19.0404
G1 X122.072 Y79.822 E19.07551
G1 X122.262 Y80.5 E19.11063
G1 X122.375 Y81.195 E19.14576
G1 X122.408 Y81.837 E19.17783
G1 X122.408 Y88.837 E19.52707
G1 X122.368 Y89.54 E19.5622
G1 X122.249 Y90.234 E19.59732
G1 X122.051 Y90.909 E19.63242
G1 X121.779 Y91.558 E19.66753
G1 X121.434 Y92.172 E19.70266
G1 X121.023 Y92.743 E19.73776
G1 X120.549 Y93.264 E19.7729
G1 X120.019 Y93.728 E19.80805
G1 X119.44 Y94.128 E19.84316
G1 X118.819 Y94.46 E19.87829
G1 X118.165 Y94.72 E19.9134
G1 X117.485 Y94.904 E19.94855
G1 X116.789 Y95.01 E19.98367
G1 X116.208 Y95.037 E20.01269
G1 X110.03 Y95.034 E20.32091
G1 X109.327 Y95.004 E20.35601
G1 X108.605 Y94.93 E20.39222
G1 X107.914 Y94.818 E20.42715
G1 X107.219 Y94.664 E20.46266
G1 X106.532 Y94.469 E20.49829
G1 X105.859 Y94.234 E20.53385
G1 X105.216 Y93.967 E20.56859
G1 X104.574 Y93.657 E20.60416
G1 X103.964 Y93.316 E20.63902
G1 X103.349 Y92.925 E20.67538
G1 X102.773 Y92.509 E20.71083
G1 X102.232 Y92.067 E20.74568
G1 X101.715 Y91.594 E20.78064
G1 X101.2 Y91.064 E20.81751
G1 X100.752 Y90.543 E20.85179
G1 X100.322 Y89.985 E20.88694
G1 X99.9 Y89.36 E20.92456
G1 X99.57 Y88.806 E20.95673
G1 X99.216 Y88.128 E20.99489
G1 X98.941 Y87.512 E21.02855
G1 X98.686 Y86.844 E21.06422
G1 X98.467 Y86.146 E21.10072
G1 X98.302 Y85.492 E21.13437
G1 X98.163 Y84.767 E21.1712
G1 X98.071 Y84.058 E21.20686
G1 X98.021 Y83.355 E21.24203
G1 X98.008 Y82.838 E21.26783
G1 X98.007 Y76.838 E21.56717
G0 F3600 X98.407 Y76.838
G1 F1800 X98.447 Y76.158 E21.60115
G1 X98.566 Y75.488 E21.6351
G1 X98.763 Y74.836 E21.66908
G1 X99.035 Y74.212 E21.70304
G1 X99.378 Y73.624 E21.73701
G1 X99.788 Y73.08 E21.77099
G1 X100.259 Y72.588 E21.80497
G1 X100.784 Y72.155 E21.83892
G1 X101.356 Y71.786 E21.87288
G1 X101.968 Y71.487 E21.90686
G1 X102.61 Y71.261 E21.94082
G1 X103.275 Y71.112 E21.97482
G1 X104.207 Y71.037 E22.02147
G1 X111.208 Y71.037 E22.37075
G1 X111.888 Y71.077 E22.40473
G1 X112.558 Y71.196 E22.43868
G1 X113.21 Y71.393 E22.47266
G1 X113.834 Y71.665 E22.50662
G1 X114.422 Y72.009 E22.54061
G1 X114.966 Y72.419 E22.5746
G1 X115.309 Y72.736 E22.5979
G1 X120.309 Y77.736 E22.95068
G1 X120.762 Y78.245 E22.98467
G1 X121.151 Y78.803 E23.01861
G1 X121.473 Y79.403 E23.05258
G1 X121.722 Y80.037 E23.08656
G1 X121.895 Y80.696 E23.12055
G1 X121.989 Y81.37 E23.1545
G1 X122.008 Y81.837 E23.17782
G1 X122.008 Y88.837 E23.52705
G1 X121.968 Y89.517 E23.56104
G1 X121.849 Y90.187 E23.59499
G1 X121.652 Y90.839 E23.62897
G1 X121.38 Y91.463 E23.66293
G1 X121.036 Y92.051 E23.69691
G1 X120.626 Y92.595 E23.7309
G1 X120.155 Y93.086 E23.76484
G1 X119.63 Y93.52 E23.79883
G1 X119.058 Y93.889 E23.83279
G1 X118.446 Y94.188 E23.86677
G1 X117.804 Y94.413 E23.90071
G1 X117.139 Y94.562 E23.93471
G1 X116.208 Y94.637 E23.98131
G1 X110.041 Y94.635 E24.28898
G1 X109.362 Y94.606 E24.32289
G1 X108.664 Y94.535 E24.35789
G1 X107.995 Y94.426 E24.39171
G1 X107.322 Y94.277 E24.4261
G1 X106.658 Y94.089 E24.46052
G1 X106.008 Y93.862 E24.49487
G1 X105.385 Y93.604 E24.52852
G1 X104.764 Y93.305 E24.5629
G1 X104.173 Y92.975 E24.59667
G1 X103.578 Y92.598 E24.63181
G1 X103.022 Y92.195 E24.66607
G1 X102.498 Y91.768 E24.6998
G1 X101.997 Y91.311 E24.73363
G1 X101.5 Y90.799 E24.76923
G1 X101.065 Y90.295 E24.80244
G1 X100.65 Y89.755 E24.83642
G1 X100.241 Y89.152 E24.87277
G1 X99.921 Y88.614 E24.904
G1 X99.579 Y87.961 E24.94078
G1 X99.313 Y87.363 E24.97343
G1 X99.066 Y86.718 E25.00789
G1 X98.853 Y86.043 E25.0432
G1 X98.694 Y85.41 E25.07576
G1 X98.559 Y84.71 E25.11133
G1 X98.47 Y84.024 E25.14584
G1 X98.421 Y83.343 E25.1799
G1 X98.408 Y82.838 E25.20511
G1 X98.407 Y76.838 E25.50445
G0 F3600 X98.807 Y76.838
G1 F1800 X98.847 Y76.182 E25.53724
G1 X98.966 Y75.536 E25.57001
G1 X99.163 Y74.909 E25.6028
G1 X99.434 Y74.311 E25.63555
G1 X99.776 Y73.75 E25.66833
G1 X100.184 Y73.235 E25.70111
G1 X100.651 Y72.773 E25.73388
G1 X101.171 Y72.371 E25.76667
G1 X101.736 Y72.036 E25.79944
G1 X102.337 Y71.771 E25.83221
G1 X102.966 Y71.582 E25.86498
G1 X103.613 Y71.47 E25.89774
G1 X104.207 Y71.437 E25.92742
G1 X111.208 Y71.437 E26.2767
G1 X111.864 Y71.477 E26.30949
G1 X112.51 Y71.596 E26.34226
G1 X113.137 Y71.793 E26.37505
G1 X113.735 Y72.065 E26.40783
G1 X114.296 Y72.407 E26.4406
G1 X115.026 Y73.019 E26.48813
G1 X120.026 Y78.019 E26.84091
G1 X120.462 Y78.511 E26.8737
G1 X120.834 Y79.052 E26.90646
G1 X121.138 Y79.634 E26.93922
G1 X121.369 Y80.249 E26.97199
G1 X121.524 Y80.888 E27.0048
G1 X121.608 Y81.837 E27.05233
G1 X121.608 Y88.837 E27.40156
G1 X121.568 Y89.493 E27.43435
G1 X121.449 Y90.139 E27.46712
G1 X121.252 Y90.766 E27.49991
G1 X120.98 Y91.364 E27.53269
G1 X120.638 Y91.925 E27.56546
G1 X120.23 Y92.44 E27.59824
G1 X119.763 Y92.902 E27.63102
G1 X119.243 Y93.303 E27.66378
G1 X118.679 Y93.639 E27.69653
G1 X118.077 Y93.903 E27.72933
G1 X117.448 Y94.093 E27.76211
G1 X116.801 Y94.204 E27.79486
G1 X116.208 Y94.237 E27.82449
G1 X110.053 Y94.235 E28.13156
G1 X109.396 Y94.207 E28.16437
G1 X108.722 Y94.139 E28.19817
G1 X108.075 Y94.035 E28.23086
G1 X107.426 Y93.891 E28.26403
G1 X106.784 Y93.709 E28.29732
G1 X106.156 Y93.491 E28.33048
G1 X105.553 Y93.242 E28.36303
G1 X104.954 Y92.953 E28.39621
G1 X104.382 Y92.635 E28.42886
G1 X103.808 Y92.27 E28.4628
G1 X103.27 Y91.882 E28.49589
G1 X102.763 Y91.469 E28.52852
G1 X102.279 Y91.027 E28.56122
G1 X101.799 Y90.534 E28.59555
G1 X101.379 Y90.047 E28.62763
G1 X100.977 Y89.525 E28.6605
G1 X100.583 Y88.944 E28.69552
G1 X100.272 Y88.423 E28.72579
G1 X99.942 Y87.793 E28.76128
G1 X99.684 Y87.215 E28.79285
G1 X99.446 Y86.592 E28.82613
G1 X99.24 Y85.941 E28.86019
G1 X99.086 Y85.328 E28.89173
G1 X98.955 Y84.653 E28.92603
G1 X98.868 Y83.99 E28.95939
G1 X98.82 Y83.331 E28.99236
G1 X98.808 Y82.838 E29.01696
G1 X98.807 Y76.838 E29.3163
G0 F3600 X99.207 Y76.838
G1 F1800 X99.247 Y76.207 E29.34784
