;FLAVOR:Marlin
;TIME:1005
;Filament used: 0.719575m
;Layer height: 0.2
;MINX:54.376
;MINY:130.745
;MINZ:0.3
;MAXX:71.968
;MAXY:148.334
;MAXZ:12.775
;Generated with Cura_SteamEngine 5.0.0
M82 ;absolute extrusion mode
;Profil Homepage: https://github.com/NilsRo/Cura_Anycubic_MegaS_Profile

;Slicer Information - (Support for OctoPrint Slicer Estimator)
;Slicer info:material_guid;0ff92885-617b-4144-a03c-9989872454bc
;Slicer info:material_id;generic_pla_175
;Slicer info:material_brand;Generic
;Slicer info:material_name;PLA
;Slicer info:material_bed_temperature;60
;Slicer info:material_bed_temperature_layer_0;60
;Slicer info:material_print_temperature;200
;Slicer info:material_print_temperature_layer_0;205
;Slicer info:material_flow;100
;Slicer info:layer_height;0.2
;Slicer info:wall_thickness;1.2000000000000002
;Slicer info:speed_print;60.0
;Slicer info:speed_topbottom;30.0
;Slicer info:travel_speed;100.0
;Slicer info:support;0
;Slicer info:retraction_speed;30
;Slicer info:retraction_amount;6
;Slicer info:layer_height;0.2
;Slicer info:infill_pattern;grid
;Slicer info:infill_sparse_density;25
;Slicer info:cool_fan_enabled;True
;Slicer info:cool_fan_speed;70
;Slicer info:sliced_at;Tue 22-11-2022 13:24:31
G21                                        ; metric values 
G90                                        ; absolute positioning 
M82                                        ; set extruder to absolute mode 
M107                                       ; start with the fan off 
M140 S60   ; Start heating the bed 
G4 S60                                     ; wait 1 minute 
M104 S205 ; start heating the hot end 
M190 S60   ; wait for bed 
M109 S205 ; wait for hotend 
M300 S1000 P500                            ; BEEP heating done 
G28 X0 Y10 Z0                              ; move X/Y to min endstops 
M420 S1                                    ; Enable leveling 
M420 Z2.0                                  ; Set leveling fading height to 2 mm 
G0 Z0.15                                   ; lift nozzle a bit 
G92 E0                                     ; zero the extruded length 
G1 X50 E20 F500                            ; Extrude 20mm of filament in a 5cm line. 
G92 E0                                     ; zero the extruded length again 
G1 E-2 F500                                ; Retract a little 
G1 X120 F4000                              ; Quickly wipe away from the filament line`
G92 E0
G92 E0
G1 F1800 E-6
;LAYER_COUNT:63
;LAYER:0
M106 S76.5
M205 X10 Y10
G1 F480 Z0.375
;MESH:stepper.3mf
G0 F6000 X56.766 Y140.941 Z0.375
M205 X8 Y8
;TYPE:WALL-OUTER
G1 F480 Z0.3
G1 F1800 E0
G1 F1200 X56.702 Y141.394 E0.02282
G1 X56.289 Y141.788 E0.0513
G1 X55.768 Y141.971 E0.07885
G1 X55.319 Y142.254 E0.10533
G1 X54.94 Y142.642 E0.13239
G1 X55.165 Y143.165 E0.16079
G1 X55.7 Y143.171 E0.18749
G1 X56.223 Y143.067 E0.21409
G1 X56.713 Y142.815 E0.24158
G1 X57.279 Y142.8 E0.26983
G1 X57.677 Y143.106 E0.29488
G1 X57.887 Y143.574 E0.32047
G1 X57.787 Y144.089 E0.34664
G1 X57.357 Y144.51 E0.37666
G1 X56.99 Y145.004 E0.40737
G1 X56.754 Y145.556 E0.43732
G1 X57.154 Y145.956 E0.46554
G1 X57.676 Y145.725 E0.49402
G1 X58.104 Y145.454 E0.51929
G1 X58.525 Y144.982 E0.55085
G1 X59.089 Y144.81 E0.58026
G1 X59.564 Y145.01 E0.60598
G1 X59.899 Y145.403 E0.63174
G1 F1203 X59.912 Y145.912 E0.65708
G1 X59.704 Y146.383 E0.6827
G1 F1200 X59.544 Y146.982 E0.71363
G1 X59.544 Y147.552 E0.74207
G1 X60.066 Y147.771 E0.77031
G1 X60.455 Y147.359 E0.79858
G1 X60.768 Y146.913 E0.82577
G1 X60.96 Y146.346 E0.85563
G1 X61.338 Y146.006 E0.881
G1 X62.019 Y145.994 E0.91498
G1 X62.437 Y146.263 E0.93978
G1 X62.614 Y146.737 E0.96502
G1 X62.581 Y147.305 E0.9934
G1 X62.671 Y147.827 E1.01983
G1 X62.887 Y148.332 E1.04723
G1 X63.453 Y148.331 E1.07547
G1 X63.675 Y147.805 E1.10396
G1 X63.772 Y147.299 E1.12966
G1 X63.733 Y146.683 E1.16045
G1 X63.943 Y146.226 E1.18554
G1 X64.494 Y145.956 E1.21616
G1 X64.997 Y146.004 E1.24137
G1 X65.374 Y146.337 E1.26646
G1 X65.558 Y146.872 E1.29469
G1 X65.883 Y147.388 E1.32511
G1 X66.273 Y147.768 E1.35228
G1 X66.795 Y147.553 E1.38044
G1 X66.781 Y146.984 E1.40884
G1 X66.696 Y146.478 E1.43444
G1 X66.407 Y145.835 E1.46961
G1 X66.487 Y145.319 E1.49566
G1 X66.855 Y144.954 E1.52152
G1 X67.351 Y144.807 E1.54733
G1 X67.864 Y145.018 E1.575
G1 X68.185 Y145.403 E1.60001
G1 X68.679 Y145.753 E1.63021
G1 X69.187 Y145.956 E1.65751
G1 X69.587 Y145.555 E1.68576
G1 X69.384 Y145.048 E1.71301
G1 X69.033 Y144.552 E1.74332
G1 X68.617 Y144.189 E1.77087
G1 X68.437 Y143.659 E1.79879
G1 X68.642 Y143.144 E1.82645
G1 X69.041 Y142.808 E1.85247
G1 F1203 X69.542 Y142.795 E1.87741
G1 X70.03 Y143.021 E1.90418
G1 F1200 X70.588 Y143.16 E1.93287
G1 X71.183 Y143.164 E1.96255
G1 X71.402 Y142.642 E1.99079
G1 X70.983 Y142.248 E2.01949
G1 X70.499 Y141.93 E2.04838
G1 X69.979 Y141.75 E2.07583
G1 X69.637 Y141.37 E2.10134
G1 X69.623 Y140.699 E2.13482
G1 X69.896 Y140.27 E2.16019
G1 X70.368 Y140.095 E2.18531
G1 X71.015 Y140.134 E2.21764
G1 X71.506 Y140.018 E2.24282
G1 X71.963 Y139.823 E2.2676
G1 X71.967 Y139.535 E2.28197
G1 X71.962 Y139.257 E2.29585
G1 X71.436 Y139.035 E2.32433
G1 X70.933 Y138.937 E2.3499
G1 X70.293 Y138.976 E2.38188
G1 X69.813 Y138.733 E2.40873
G1 X69.586 Y138.212 E2.43708
G1 X69.636 Y137.711 E2.4622
G1 X69.973 Y137.332 E2.4875
G1 X70.505 Y137.151 E2.51554
G1 X71.021 Y136.824 E2.54601
G1 X71.4 Y136.437 E2.57304
G1 X71.185 Y135.914 E2.60125
G1 X70.632 Y135.919 E2.62884
G1 X70.005 Y136.088 E2.66124
G1 F1203 X69.35 Y136.316 E2.69575
G1 X68.854 Y136.167 E2.72152
G1 F1200 X68.542 Y135.773 E2.7466
G1 X68.454 Y135.262 E2.77247
G1 X68.668 Y134.826 E2.7967
G1 X69.099 Y134.457 E2.82501
G1 X69.384 Y134.028 E2.8507
G1 X69.587 Y133.522 E2.8779
G1 X69.186 Y133.122 E2.90616
G1 X68.658 Y133.361 E2.93507
G1 X68.212 Y133.646 E2.96148
G1 X67.823 Y134.09 E2.99093
G1 X67.35 Y134.264 E3.01607
G1 X66.775 Y134.068 E3.04638
G1 X66.439 Y133.667 E3.07248
G1 F1203 X66.426 Y133.166 E3.09742
G1 X66.647 Y132.688 E3.12363
G1 F1200 X66.792 Y132.121 E3.15283
G1 X66.796 Y131.525 E3.18256
G1 X66.273 Y131.307 E3.21083
G1 X65.878 Y131.726 E3.23956
G1 X65.56 Y132.203 E3.26816
G1 F1203 X65.33 Y132.804 E3.30019
G1 X64.917 Y133.111 E3.3258
G1 F1200 X64.414 Y133.106 E3.35089
G1 X63.934 Y132.854 E3.37794
G1 X63.727 Y132.362 E3.40457
G1 X63.77 Y131.842 E3.4306
G1 X63.668 Y131.246 E3.46077
G1 X63.453 Y130.747 E3.48787
G1 X62.887 Y130.748 E3.51611
G1 X62.685 Y131.281 E3.54455
G1 X62.568 Y131.816 E3.57187
G1 X62.607 Y132.416 E3.60187
G1 X62.378 Y132.87 E3.62724
G1 X61.935 Y133.104 E3.65223
G1 X61.381 Y133.097 E3.67987
G1 F1203 X60.964 Y132.741 E3.70716
G1 X60.78 Y132.199 E3.73565
G1 F1200 X60.455 Y131.688 E3.76586
G1 X60.068 Y131.31 E3.79285
G1 X59.545 Y131.524 E3.82104
G1 X59.55 Y132.078 E3.84868
G1 X59.718 Y132.7 E3.88082
G1 F1203 X59.948 Y133.359 E3.91556
G1 X59.801 Y133.851 E3.94111
G1 F1200 X59.411 Y134.172 E3.96631
G1 X58.876 Y134.26 E3.99336
G1 X58.458 Y134.041 E4.01691
G1 X58.086 Y133.625 E4.04475
G1 X57.657 Y133.325 E4.07087
G1 X57.153 Y133.123 E4.09796
G1 X56.755 Y133.523 E4.12611
G1 X56.956 Y134.026 E4.15313
G1 X57.306 Y134.526 E4.18358
G1 F1203 X57.774 Y134.968 E4.21562
G1 X57.898 Y135.466 E4.24116
G1 F1200 X57.699 Y135.933 E4.26648
G1 X57.28 Y136.279 E4.29359
G1 F1203 X56.748 Y136.275 E4.32007
G1 X56.225 Y136.024 E4.34894
G1 F1200 X55.727 Y135.914 E4.37438
G1 X55.157 Y135.912 E4.40282
G1 X54.938 Y136.435 E4.43111
G1 X55.329 Y136.819 E4.45845
G1 X55.768 Y137.099 E4.48443
G1 X56.251 Y137.279 E4.51014
G1 X56.659 Y137.615 E4.53651
G1 X56.774 Y138.012 E4.55713
G1 X56.675 Y138.496 E4.58178
G1 X56.338 Y138.876 E4.60712
G1 X55.953 Y138.983 E4.62705
G1 X55.325 Y138.945 E4.65844
G1 X54.836 Y139.06 E4.6835
G1 X54.378 Y139.257 E4.70838
G1 X54.379 Y139.822 E4.73657
G1 X54.923 Y140.03 E4.76562
G1 X55.411 Y140.141 E4.79059
G1 X56.026 Y140.102 E4.82133
G1 X56.491 Y140.319 E4.84694
G1 X56.766 Y140.941 E4.88086
M205 X10 Y10
G0 F6000 X56.738 Y141.139
G1 F1800 E-1.11914
G1 F480 Z0.375
G0 F6000 X66.159 Y145.07 Z0.375
M205 X8 Y8
;TYPE:WALL-INNER
G1 F480 Z0.3
G1 F1800 E4.88086
G1 F1200 X66.595 Y144.65 E4.91107
G1 X67.213 Y144.426 E4.94386
G1 X67.606 Y144.456 E4.96353
G1 F1263.2 X68.125 Y144.743 E4.99164
G1 F1266.5 X68.479 Y145.124 E5.01622
G1 F1209.1 X69.078 Y145.483 E5.0508
G1 X69.032 Y145.239 E5.06309
G1 X68.735 Y144.82 E5.08852
G1 F1266.5 X68.367 Y144.476 E5.11234
G1 F1263.2 X68.173 Y144.211 E5.1279
G1 F1200 X68.037 Y143.653 E5.15656
G1 X68.274 Y142.986 E5.19187
G1 X68.458 Y142.749 E5.20684
G1 X69.029 Y142.395 E5.24036
G1 F1224.5 X69.55 Y142.402 E5.26583
G1 F1230.8 X70.213 Y142.668 E5.30058
G1 F1215.2 X70.834 Y142.772 E5.3316
G1 X70.939 Y142.728 E5.33721
G1 X70.433 Y142.342 E5.36857
G1 F1266.5 X69.947 Y142.144 E5.39337
G1 F1256.5 X69.575 Y141.935 E5.4137
G1 F1200 X69.234 Y141.462 E5.44279
G1 X69.223 Y140.677 E5.48196
G1 X69.322 Y140.379 E5.49763
G1 X69.688 Y139.928 E5.52661
G1 F1230.8 X70.159 Y139.746 E5.55117
G1 F1243.5 X70.883 Y139.728 E5.58603
G1 F1230.8 X71.351 Y139.656 E5.60907
G1 F1237.1 X71.573 Y139.541 E5.62117
G1 X71.008 Y139.353 E5.64998
G1 F1280 X70.412 Y139.352 E5.67786
G1 F1263.2 X70.017 Y139.304 E5.69672
G1 F1203 X69.538 Y139.023 E5.72435
G1 F1200 X69.214 Y138.36 E5.76117
G1 X69.194 Y137.794 E5.78943
G1 X69.353 Y137.424 E5.80952
G1 F1212.1 X69.638 Y137.082 E5.83151
G1 F1233.9 X70.313 Y136.801 E5.86698
G1 F1266.5 X70.764 Y136.529 E5.89188
G1 F1286.9 X70.938 Y136.316 E5.90467
G1 X70.401 Y136.339 E5.92968
G1 F1300.8 X69.852 Y136.583 E5.95733
G1 F1253.3 X69.347 Y136.721 E5.98234
G1 F1200 X68.82 Y136.601 E6.0093
G1 X68.542 Y136.418 E6.02591
G1 X68.221 Y136.031 E6.05099
G1 X68.056 Y135.494 E6.07902
G1 X68.088 Y135.1 E6.09874
G1 F1256.5 X68.335 Y134.626 E6.12421
G1 F1266.5 X68.731 Y134.25 E6.15002
G1 F1227.6 X69.033 Y133.844 E6.17469
G1 F1233.9 X69.089 Y133.577 E6.18793
G1 X68.55 Y133.899 E6.21839
G1 F1276.6 X68.165 Y134.279 E6.24376
G1 F1263.2 X67.844 Y134.532 E6.26313
G1 F1203 X67.285 Y134.673 E6.29182
G1 F1200 X66.617 Y134.436 E6.32719
G1 X66.378 Y134.249 E6.34233
G1 X66.033 Y133.718 E6.37392
G1 F1227.6 X66.034 Y133.157 E6.40128
G1 F1233.9 X66.293 Y132.506 E6.43527
G1 F1218.3 X66.405 Y131.875 E6.46676
G1 F1221.4 X66.358 Y131.766 E6.47258
G1 X65.978 Y132.266 E6.50337
G1 F1256.5 X65.764 Y132.753 E6.52871
G1 F1243.5 X65.485 Y133.227 E6.55519
G1 F1200 X64.994 Y133.504 E6.58332
G1 X64.407 Y133.506 E6.6126
G1 X64.074 Y133.402 E6.63001
G1 X63.656 Y133.142 E6.65456
G1 F1212.1 X63.415 Y132.668 E6.68083
G1 F1269.8 X63.346 Y132.281 E6.69936
G1 F1259.8 X63.364 Y131.827 E6.72095
G1 F1209.1 X63.222 Y131.218 E6.75192
G1 X63.143 Y131.142 E6.75735
G1 X62.974 Y131.818 E6.79185
G1 F1269.8 X62.987 Y132.369 E6.81783
G1 F1263.2 X62.839 Y132.911 E6.84446
G1 F1200 X62.531 Y133.244 E6.86709
G1 X62.07 Y133.488 E6.89311
G1 X61.483 Y133.516 E6.92243
G1 X61.094 Y133.387 E6.94288
G1 F1212.1 X60.713 Y133.072 E6.9673
G1 F1237.1 X60.431 Y132.392 E7.00292
G1 F1266.5 X60.161 Y131.946 E7.02757
G1 F1286.9 X59.947 Y131.771 E7.04043
G1 X59.97 Y132.307 E7.06539
G1 F1307.9 X60.238 Y132.917 E7.09589
G1 F1259.8 X60.352 Y133.36 E7.11762
G1 F1200 X60.23 Y133.89 E7.14476
G1 X59.955 Y134.243 E7.16708
G1 X59.548 Y134.553 E7.19261
G1 X58.968 Y134.656 E7.22199
G1 X58.615 Y134.592 E7.23989
G1 F1240.3 X58.16 Y134.288 E7.26631
G1 F1246.8 X57.857 Y133.951 E7.28807
G1 F1212.1 X57.262 Y133.596 E7.32229
G1 X57.316 Y133.846 E7.33492
G1 X57.609 Y134.264 E7.36013
G1 F1243.5 X58.038 Y134.684 E7.38904
G1 F1240.3 X58.221 Y134.981 E7.40588
G1 F1200 X58.286 Y135.562 E7.43504
G1 X58.067 Y136.091 E7.46361
G1 X57.884 Y136.327 E7.47851
G1 X57.421 Y136.653 E7.50676
G1 F1221.4 X56.786 Y136.675 E7.5379
G1 F1243.5 X56.053 Y136.376 E7.57601
G1 F1256.5 X55.518 Y136.297 E7.60178
G1 F1263.2 X55.391 Y136.351 E7.60832
G1 X55.795 Y136.684 E7.63314
G1 F1297.3 X56.348 Y136.906 E7.66064
G1 F1263.2 X56.821 Y137.194 E7.68688
G1 F1200 X57.036 Y137.481 E7.70477
G1 X57.177 Y137.986 E7.73093
G1 X57.105 Y138.491 E7.75638
G1 X56.755 Y139.05 E7.78928
G1 X56.373 Y139.285 E7.81166
G1 F1259.8 X55.93 Y139.364 E7.83304
G1 F1273.2 X55.38 Y139.346 E7.85892
G1 F1224.5 X54.867 Y139.478 E7.88482
G1 X54.771 Y139.566 E7.89119
G1 X55.328 Y139.716 E7.91939
G1 F1273.2 X55.931 Y139.726 E7.94775
G1 F1259.8 X56.325 Y139.773 E7.9666
G1 F1200 X56.764 Y140.021 E7.99176
G1 X56.961 Y140.294 E8.00855
G1 X57.151 Y140.831 E8.03697
G1 X57.124 Y141.341 E8.06245
G1 X56.929 Y141.751 E8.0851
G1 X56.411 Y142.169 E8.11831
G1 F1215.2 X55.923 Y142.339 E8.14377
G1 F1227.6 X55.419 Y142.719 E8.17455
G1 X55.441 Y142.773 E8.1774
G1 X56.065 Y142.696 E8.20806
G1 F1280 X56.534 Y142.482 E8.23217
G1 F1266.5 X56.8 Y142.394 E8.24541
G1 F1200 X57.427 Y142.428 E8.27674
G1 X57.876 Y142.742 E8.30408
G1 X58.074 Y143.007 E8.32058
G1 X58.291 Y143.534 E8.34901
G1 X58.172 Y144.2 E8.38277
G1 F1206 X57.62 Y144.809 E8.42357
G1 F1218.3 X57.314 Y145.232 E8.44922
G1 F1221.4 X57.251 Y145.497 E8.46258
G1 X57.822 Y145.164 E8.49498
G1 F1266.5 X58.238 Y144.729 E8.52343
G1 F1253.3 X58.51 Y144.537 E8.53933
G1 F1200 X59.171 Y144.418 E8.57284
G1 X59.722 Y144.642 E8.60251
G1 X59.957 Y144.823 E8.61731
G1 X60.313 Y145.394 E8.65088
G1 F1221.4 X60.305 Y145.92 E8.67667
G1 F1237.1 X60.059 Y146.557 E8.70971
G1 F1240.3 X59.929 Y147.049 E8.73428
G1 F1253.3 X59.982 Y147.316 E8.74728
G1 X60.333 Y146.853 E8.77504
G1 F1286.9 X60.572 Y146.302 E8.80298
G1 F1259.8 X60.777 Y145.94 E8.82275
G1 F1200 X61.252 Y145.6 E8.85189
G1 X62.042 Y145.594 E8.8913
G1 X62.342 Y145.695 E8.9071
G1 X62.779 Y146.057 E8.93541
G1 F1221.4 X62.966 Y146.526 E8.96016
G1 F1233.9 X62.982 Y147.25 E8.99529
G1 X63.052 Y147.718 E9.01825
G1 F1240.3 X63.191 Y147.942 E9.03098
G1 X63.357 Y147.376 E9.05945
G1 F1280 X63.357 Y146.779 E9.08737
G1 F1259.8 X63.403 Y146.386 E9.10617
G1 F1200 X63.683 Y145.909 E9.13377
G1 X64.346 Y145.584 E9.17061
G1 X64.914 Y145.563 E9.19896
G1 X65.243 Y145.688 E9.21652
G1 F1240.3 X65.715 Y146.15 E9.2484
G1 F1243.5 X65.913 Y146.676 E9.27546
G1 F1212.1 X66.187 Y147.125 E9.30144
G1 F1215.2 X66.409 Y147.287 E9.31498
G1 X66.317 Y146.62 E9.34815
G1 F1246.8 X66.089 Y146.074 E9.37656
G1 F1240.3 X66.006 Y145.614 E9.39913
G1 F1200 X66.159 Y145.07 E9.42732
M205 X10 Y10
G1 F1800 E3.42732
G1 F480 Z0.375
G0 F6000 X59.923 Y134.786 Z0.375
M205 X8 Y8
G1 F480 Z0.3
G1 F1800 E9.42732
G1 F1200 X59.505 Y134.989 E9.4505
G1 X58.804 Y135.057 E9.48564
G1 X58.638 Y135.015 E9.49418
G1 X58.674 Y135.659 E9.52636
G1 X58.434 Y136.249 E9.55814
G1 X58.13 Y136.643 E9.58297
G1 X57.563 Y137.028 E9.61716
G1 X57.267 Y137.085 E9.6322
G1 X57.519 Y137.647 E9.66293
G1 X57.565 Y138.132 E9.68723
G1 X57.474 Y138.665 E9.71421
G1 X57.073 Y139.294 E9.75142
G1 X56.754 Y139.552 E9.77189
G1 X57.105 Y139.789 E9.79302
G1 X57.338 Y140.16 E9.81488
G1 X57.533 Y140.713 E9.84413
G1 X57.559 Y141.198 E9.86836
G1 X57.434 Y141.716 E9.89495
G1 X57.241 Y141.993 E9.91179
G1 X57.77 Y142.16 E9.93947
G1 X58.211 Y142.503 E9.96734
G1 X58.441 Y142.847 E9.98799
G1 X58.683 Y143.454 E10.02059
G1 X58.62 Y144.088 E10.05237
G1 X59.253 Y144.027 E10.0841
G1 X59.88 Y144.275 E10.11774
G1 X60.271 Y144.576 E10.14236
G1 X60.609 Y145.032 E10.17068
G1 X60.719 Y145.476 E10.1935
G1 X61.112 Y145.226 E10.21673
G1 X61.521 Y145.164 E10.23737
G1 X62.104 Y145.198 E10.26651
G1 X62.565 Y145.363 E10.29094
G1 X62.957 Y145.645 E10.31503
G1 X63.177 Y145.963 E10.33432
G1 X63.522 Y145.518 E10.36241
G1 X64.198 Y145.213 E10.39941
G1 X64.635 Y145.143 E10.42149
G1 X65.099 Y145.187 E10.44474
G1 X65.626 Y145.479 E10.4748
G1 X65.811 Y144.873 E10.50641
G1 X66.335 Y144.346 E10.54349
G1 X66.731 Y144.139 E10.56578
G1 X67.294 Y144.009 E10.59461
G1 X67.715 Y144.073 E10.61586
G1 X67.657 Y143.463 E10.64643
G1 X67.907 Y142.828 E10.68047
G1 X68.213 Y142.433 E10.7054
G1 X68.673 Y142.097 E10.73382
G1 X69.109 Y141.99 E10.75622
G1 X68.86 Y141.606 E10.77905
G1 X68.795 Y141.19 E10.80006
G1 X68.827 Y140.614 E10.82884
G1 X68.988 Y140.158 E10.85296
G1 X69.274 Y139.753 E10.8777
G1 X69.592 Y139.531 E10.89705
G1 X69.146 Y139.183 E10.92527
G1 X68.842 Y138.508 E10.96221
G1 X68.774 Y138.068 E10.98442
G1 X68.888 Y137.407 E11.01788
G1 X69.108 Y137.09 E11.03713
G1 X68.49 Y136.889 E11.06956
G1 X67.977 Y136.374 E11.10582
