; generated by PrusaSlicer 2.4.0+win64 on 2022-11-20 at 08:53:29 UTC


;
;
; 

; external perimeters extrusion width = 0.45mm
; perimeters extrusion width = 0.45mm
; infill extrusion width = 0.45mm
; solid infill extrusion width = 0.45mm
; top infill extrusion width = 0.40mm
; first layer extrusion width = 0.42mm

M73 P0 R9
M73 Q0 S9
M201 X1000 Y1000 Z200 E5000 ; sets maximum accelerations, mm/sec^2
M203 X200 Y200 Z12 E120 ; sets maximum feedrates, mm/sec
M204 P1250 R1250 T1250 ; sets acceleration (P, T) and retract acceleration (R), mm/sec^2
M205 X8.00 Y8.00 Z0.40 E4.50 ; sets the jerk limits, mm/sec
M205 S0 T0 ; sets the minimum extruding and travel feed rate, mm/sec
M107
;TYPE:Custom
M862.3 P "MK3S" ; printer model check
M862.1 P0.4 ; nozzle diameter check
M115 U3.11.0 ; tell printer latest fw version
G90 ; use absolute coordinates
M83 ; extruder relative mode
M104 S215 ; set extruder temp
M140 S60 ; set bed temp
M190 S60 ; wait for bed temp
M109 S215 ; wait for extruder temp
G28 W ; home all without mesh bed level
G80 ; mesh bed leveling
G1 Z0.2 F720
G1 Y-3 F1000 ; go outside print area
G92 E0
G1 X60 E9 F1000 ; intro line
G1 X100 E12.5 F1000 ; intro line
G92 E0
M221 S95

; Don't change E values below. Excessive value can damage the printer.
M907 E430 ; set extruder motor current
G21 ; set units to millimeters
G90 ; use absolute coordinates
M83 ; use relative distances for extrusion
M900 K0.05 ; Filament gcode LA 1.5
M900 K30 ; Filament gcode LA 1.0
M107
;LAYER_CHANGE
;Z:0.2
;HEIGHT:0.2
;BEFORE_LAYER_CHANGE
G92 E0.0
;0.2


G1 E-.8 F2100
M73 P1 R8
M73 Q1 S9
G1 Z.4 F720
;AFTER_LAYER_CHANGE
;0.2
G1 X116.262 Y98.98 F10800
G1 Z.2 F720
G1 E.8 F2100
M204 S800
;TYPE:Skirt/Brim
;WIDTH:0.42
M73 Q1 S8
G1 F1200
G1 X117.344 Y97.842 E.04923
G1 X119 Y97.369 E.054
G1 X126 Y97.369 E.21948
G1 X127.52 Y97.762 E.04923
G1 X128.214 Y98.286 E.02726
G1 X133.214 Y103.286 E.22171
G1 X134.011 Y104.639 E.04923
G1 X134.131 Y105.5 E.02726
G1 X134.131 Y112.5 E.21948
G1 X133.738 Y114.02 E.04923
G1 X132.656 Y115.158 E.04923
G1 X131 Y115.631 E.054
G1 X124.56 Y115.62 E.20192
G1 X123.522 Y115.51 E.03274
G1 X122.474 Y115.274 E.03366
G1 X121.473 Y114.921 E.03329
G1 X120.514 Y114.452 E.03348
G1 X119.621 Y113.878 E.03329
G1 X118.805 Y113.207 E.03311
G1 X118.072 Y112.447 E.03311
G1 X117.422 Y111.593 E.03365
G1 X116.888 Y110.689 E.03293
G1 X116.452 Y109.708 E.03365
G1 X116.025 Y108.175 E.0499
G1 X115.87 Y106.591 E.0499
G1 X115.869 Y100.5 E.19098
G1 X116.247 Y99.038 E.04735
M204 S1000
G1 X116.622 Y99.142 F10800
M204 S800
G1 F1200
G1 X116.639 Y99.083 E.00193
G1 X117.705 Y98.069 E.04612
G1 X119 Y97.746 E.04186
G1 X126 Y97.746 E.21948
G1 X127.947 Y98.553 E.06609
M73 Q2 S8
G1 X132.947 Y103.553 E.22171
G1 X133.754 Y105.5 E.06609
M73 P2 R8
G1 X133.754 Y112.5 E.21948
G1 X133.361 Y113.917 E.04612
G1 X132.295 Y114.931 E.04612
G1 X131 Y115.254 E.04186
G1 X124.411 Y115.234 E.20659
G1 X123.076 Y115.039 E.0423
G1 X121.947 Y114.703 E.03693
G1 X121.154 Y114.363 E.02706
G1 X120.257 Y113.857 E.03228
G1 X119.444 Y113.264 E.03155
G1 X118.688 Y112.565 E.03228
G1 X118.027 Y111.791 E.03192
G1 X117.481 Y110.981 E.03064
G1 X116.747 Y109.418 E.05411
G1 X116.366 Y107.941 E.04784
G1 X116.246 Y106.5 E.04534
G1 X116.246 Y100.5 E.18813
G1 X116.606 Y99.2 E.0423
M204 S1000
G1 X116.979 Y99.312 F10800
M204 S800
G1 F1200
G1 X117.015 Y99.193 E.00388
G1 X118.06 Y98.317 E.04278
G1 X119 Y98.123 E.03008
G1 X126 Y98.123 E.21948
G1 X127.681 Y98.819 E.05704
G1 X132.681 Y103.819 E.22171
G1 X133.377 Y105.5 E.05704
G1 X133.377 Y112.5 E.21948
G1 X132.985 Y113.807 E.04278
G1 X131.94 Y114.683 E.04278
G1 X131 Y114.877 E.03008
G1 X124.582 Y114.866 E.20123
G1 X123.493 Y114.739 E.03436
G1 X122.211 Y114.398 E.0416
G1 X120.752 Y113.719 E.05046
G1 X119.943 Y113.177 E.03054
G1 X119.202 Y112.545 E.03054
G1 X118.55 Y111.844 E.03003
G1 X117.964 Y111.045 E.03106
G1 X117.491 Y110.212 E.03004
G1 X117.105 Y109.3 E.03104
G1 X116.739 Y107.886 E.04578
G1 X116.623 Y106.5 E.04362
G1 X116.623 Y100.5 E.18813
G1 X116.962 Y99.369 E.03702
M204 S1000
; printing object testing_block id:0 copy 0
;WIPE_START
M73 Q3 S8
G1 F8640
G1 X117.015 Y99.193 E-.04244
G1 X118.06 Y98.317 E-.31505
G1 X119 Y98.123 E-.22155
G1 X119.784 Y98.123 E-.18096
;WIPE_END
G1 E-.04 F2100
G1 Z.6 F720
G1 X126.339 Y106.585 F10800
M73 P3 R8
G1 Z.2 F720
G1 E.8 F2100
M204 S800
;TYPE:Perimeter
G1 F1200
G1 X126.454 Y106.521 E.00413
G1 X127.001 Y106.356 E.01791
G1 X127.536 Y106.312 E.01682
G1 X127.87 Y106.336 E.01052
G1 X128.413 Y106.469 E.01751
G1 X128.927 Y106.719 E.01793
G1 X129.377 Y107.072 E.01793
G1 X129.742 Y107.513 E.01793
G1 X129.999 Y108.006 E.01744
G1 X130.098 Y108.308 E.00996
G1 X130.187 Y108.857 E.01744
G1 X130.156 Y109.428 E.01793
G1 X130.006 Y109.98 E.01794
G1 X129.742 Y110.487 E.01793
G1 X129.387 Y110.916 E.01744
G1 X129.148 Y111.125 E.00996
G1 X128.677 Y111.42 E.01744
G1 X128.139 Y111.614 E.01793
G1 X127.572 Y111.69 E.01794
G1 X127.017 Y111.645 E.01744
G1 X126.709 Y111.57 E.00996
G1 X126.196 Y111.354 E.01744
G1 X125.728 Y111.025 E.01793
G1 X125.34 Y110.605 E.01794
G1 X125.05 Y110.112 E.01793
G1 X124.87 Y109.569 E.01794
G1 X124.809 Y109 E.01793
G1 X124.87 Y108.431 E.01794
G1 X125.05 Y107.888 E.01794
G1 X125.332 Y107.409 E.01744
G1 X125.535 Y107.164 E.00996
G1 X125.953 Y106.798 E.01744
G1 X126.286 Y106.614 E.01192
M204 S1000
G1 X126.171 Y107.109 F10800
M204 S800
;TYPE:External perimeter
G1 F1200
G1 X126.601 Y106.87 E.01541
G1 X127.071 Y106.729 E.0154
G1 X127.537 Y106.69 E.01466
G1 X127.811 Y106.71 E.00861
G1 X128.284 Y106.826 E.01526
G1 X128.726 Y107.04 E.01541
G1 X129.113 Y107.344 E.01541
G1 X129.426 Y107.722 E.01541
G1 X129.65 Y108.153 E.01523
G1 X129.731 Y108.397 E.00806
G1 X129.808 Y108.877 E.01523
G1 X129.782 Y109.368 E.01541
G1 X129.653 Y109.842 E.01541
G1 X129.426 Y110.278 E.01541
G1 X129.116 Y110.652 E.01523
G1 X128.923 Y110.821 E.00806
G1 X128.511 Y111.079 E.01523
G1 X128.049 Y111.245 E.01541
G1 X127.562 Y111.311 E.01541
G1 X127.077 Y111.272 E.01523
G1 X126.827 Y111.211 E.00806
G1 X126.38 Y111.022 E.01523
G1 X125.978 Y110.74 E.01541
G1 X125.645 Y110.378 E.01541
G1 X125.395 Y109.955 E.01541
G1 X125.241 Y109.489 E.01541
G1 X125.189 Y109 E.01541
G1 X125.241 Y108.511 E.01541
G1 X125.395 Y108.045 E.01541
G1 X125.642 Y107.626 E.01523
G1 X125.806 Y107.428 E.00806
G1 X126.126 Y107.148 E.01335
M204 S1000
G1 X126.143 Y106.71 F10800
;WIPE_START
G1 F8640
G1 X126.601 Y106.87 E-.12704
G1 X127.071 Y106.729 E-.11341
G1 X127.537 Y106.69 E-.10796
G1 X127.811 Y106.71 E-.06343
G1 X128.284 Y106.826 E-.11235
G1 X128.726 Y107.04 E-.11346
G1 X129.113 Y107.344 E-.11346
G1 X129.137 Y107.374 E-.00888
;WIPE_END
G1 E-.04 F2100
G1 Z.6 F720
G1 X125.511 Y101.658 F10800
G1 Z.2 F720
G1 E.8 F2100
M204 S800
;TYPE:Perimeter
G1 F1200
G1 X129.836 Y105.982 E.19175
G1 X129.836 Y107.035 E.033
G1 X129.642 Y106.801 E.00954
G1 X129.128 Y106.398 E.02046
G1 X128.541 Y106.112 E.02046
G1 X127.929 Y105.962 E.01977
G1 X127.534 Y105.934 E.01242
G1 X126.93 Y105.984 E.01899
G1 X126.306 Y106.172 E.02043
G1 X125.735 Y106.488 E.02046
G1 X125.264 Y106.901 E.01965
G1 X125.023 Y107.192 E.01185
G1 X124.704 Y107.731 E.01965
G1 X124.499 Y108.351 E.02046
G1 X124.43 Y109 E.02046
G1 X124.499 Y109.649 E.02046
G1 X124.704 Y110.269 E.02046
G1 X125.036 Y110.831 E.02046
G1 X125.503 Y111.327 E.02137
G1 X124.72 Y111.326 E.02455
G1 X124.161 Y111.261 E.01765
G1 X123.6 Y111.128 E.01807
G1 X123.36 Y111.048 E.00794
G1 X122.83 Y110.82 E.01807
G1 X122.331 Y110.532 E.01807
G1 X122.124 Y110.387 E.00794
G1 X121.683 Y110.016 E.01807
G1 X121.291 Y109.601 E.0179
G1 X121.13 Y109.398 E.00812
G1 X120.814 Y108.917 E.01805
G1 X120.561 Y108.415 E.01763
G1 X120.369 Y107.886 E.01763
G1 X120.239 Y107.337 E.01769
G1 X120.158 Y106.6 E.02327
G1 X120.973 Y106.659 E.02562
G1 X125.166 Y106.666 E.13147
G1 X125.159 Y102.473 E.13147
G1 X125.099 Y101.651 E.02582
G1 X125.451 Y101.657 E.01105
M204 S1000
;WIPE_START
G1 F8640
G1 X127.795 Y103.968 E-.76
;WIPE_END
G1 E-.04 F2100
G1 Z.6 F720
G1 X129.836 Y111.334 F10800
G1 Z.2 F720
G1 E.8 F2100
M204 S800
G1 F1200
G1 X129.482 Y111.334 E.01109
G1 X129.658 Y111.18 E.00734
G1 X129.836 Y110.965 E.00873
G1 X129.836 Y111.274 E.00969
M204 S1000
;WIPE_START
G1 F8640
G1 X129.482 Y111.334 E-.08284
G1 X129.658 Y111.18 E-.05406
G1 X129.836 Y110.965 E-.06426
G1 X129.836 Y111.274 E-.07135
;WIPE_END
G1 E-.52748 F2100
G1 Z.6 F720
G1 X124.788 Y106.266 F10800
G1 Z.2 F720
M73 Q4 S8
G1 E.8 F2100
M204 S800
G1 F1200
G1 X124.782 Y102.483 E.11861
G1 X124.753 Y101.952 E.01669
M73 P4 R8
G1 X124.676 Y101.252 E.02207
G1 X125.67 Y101.283 E.03118
G1 X130.213 Y105.826 E.20144
G1 X130.213 Y111.712 E.18455
G1 X124.697 Y111.703 E.17293
G1 X124.095 Y111.633 E.01902
G1 X123.497 Y111.491 E.01927
G1 X123.225 Y111.401 E.00897
G1 X122.661 Y111.157 E.01927
G1 X122.129 Y110.85 E.01927
G1 X121.894 Y110.686 E.00897
G1 X121.423 Y110.291 E.01927
G1 X121.005 Y109.848 E.0191
G1 X120.824 Y109.619 E.00915
G1 X120.486 Y109.106 E.01926
G1 X120.214 Y108.564 E.019
G1 X120.007 Y107.995 E.019
G1 X119.867 Y107.404 E.01904
G1 X119.791 Y106.778 E.01975
G1 X119.753 Y106.176 E.01892
G1 X120.452 Y106.253 E.02205
G1 X120.983 Y106.282 E.01669
G1 X124.75 Y106.288 E.11809
M204 S1000
G1 X124.41 Y105.91 F10800
M204 S800
;TYPE:External perimeter
G1 F1200
G1 X120.994 Y105.905 E.10711
G1 X120.483 Y105.877 E.01605
G1 X119.689 Y105.79 E.02505
G1 X119.689 Y101.189 E.14427
G1 X124.29 Y101.189 E.14427
G1 X124.377 Y101.983 E.02505
G1 X124.405 Y102.494 E.01605
G1 X124.41 Y105.85 E.10523
M204 S1000
G1 X124.411 Y106.31 F10800
;WIPE_START
G1 F8640
G1 X121.119 Y105.903 E-.76
;WIPE_END
G1 E-.04 F2100
G1 Z.6 F720
G1 X125.829 Y100.908 F10800
G1 Z.2 F720
G1 E.8 F2100
M204 S800
G1 F1200
G1 X130.59 Y105.67 E.21113
G1 X130.59 Y112.09 E.20129
G1 X124.675 Y112.08 E.18545
G1 X124.029 Y112.005 E.02039
G1 X123.394 Y111.854 E.02048
G1 X123.091 Y111.754 E.01
G1 X122.491 Y111.495 E.02048
G1 X121.926 Y111.168 E.02048
G1 X121.664 Y110.985 E.01
G1 X121.164 Y110.566 E.02048
G1 X120.72 Y110.095 E.0203
G1 X120.518 Y109.84 E.01018
G1 X120.159 Y109.295 E.02047
G1 X119.868 Y108.714 E.02038
G1 X119.645 Y108.103 E.02038
G1 X119.495 Y107.47 E.0204
G1 X119.416 Y106.813 E.02075
G1 X119.365 Y106.02 E.02492
G1 X119.313 Y105.565 E.01436
G1 X119.313 Y101.432 E.12959
G1 X119.361 Y100.861 E.01795
G1 X120.008 Y100.811 E.02036
G1 X123.989 Y100.811 E.12483
G1 X124.991 Y100.896 E.03152
G1 X125.769 Y100.907 E.02437
M204 S1000
M73 Q5 S8
G1 X125.822 Y101.308 F10800
;WIPE_START
G1 F8640
G1 X128.11 Y103.22 E-.76
;WIPE_END
G1 E-.04 F2100
G1 Z.6 F720
G1 X124.877 Y107.216 F10800
G1 Z.2 F720
M73 P5 R8
G1 E.8 F2100
M204 S800
;TYPE:Solid infill
;WIDTH:0.437587
G1 F1200
G1 X124.608 Y106.948 E.01247
G1 X124.049 Y106.947 E.01835
G1 X124.546 Y107.444 E.02306
G1 X124.445 Y107.614 E.00649
G1 X124.374 Y107.83 E.00747
G1 X123.49 Y106.946 E.04103
G1 X122.931 Y106.945 E.01835
G1 X124.235 Y108.249 E.06054
G1 X124.173 Y108.745 E.0164
G1 X122.372 Y106.944 E.0836
G1 X121.813 Y106.943 E.01835
G1 X124.179 Y109.309 E.10981
G1 X124.221 Y109.709 E.0132
G1 X124.321 Y110.009 E.01038
G1 X121.253 Y106.942 E.14235
G1 X120.674 Y106.921 E.01903
G1 X124.797 Y111.043 E.19133
G1 X124.167 Y110.972 E.02081
G1 X120.528 Y107.333 E.16885
G1 X120.64 Y107.805 E.01591
G1 X120.754 Y108.117 E.01088
G1 X123.391 Y110.754 E.12238
G1 X122.958 Y110.567 E.01548
G1 X122.483 Y110.293 E.01796
G1 X122.296 Y110.162 E.0075
G1 X121.952 Y109.873 E.01476
G1 X120.884 Y108.805 E.04956
M204 S1000
;WIPE_START
G1 F8640
G1 X121.952 Y109.873 E-.34874
G1 X122.296 Y110.162 E-.10387
G1 X122.483 Y110.293 E-.05276
G1 X122.958 Y110.567 E-.1264
G1 X123.391 Y110.754 E-.10889
G1 X123.331 Y110.694 E-.01934
;WIPE_END
G1 E-.04 F2100
G1 Z.6 F720
G1 X129.723 Y106.293 F10800
G1 Z.2 F720
G1 E.8 F2100
M204 S800
;WIDTH:0.454515
G1 F1200
G1 X125.406 Y101.977 E.20892
G1 X125.442 Y102.594 E.02117
G1 X128.743 Y105.896 E.15978
G1 X128.638 Y105.845 E.004
G1 X127.945 Y105.68 E.02436
G1 X125.443 Y103.178 E.12113
G1 X125.444 Y103.761 E.01995
G1 X127.349 Y105.665 E.09219
G1 X126.822 Y105.721 E.01812
G1 X125.445 Y104.344 E.06666
G1 X125.446 Y104.927 E.01995
G1 X126.375 Y105.856 E.04496
G1 X126.196 Y105.91 E.00639
G1 X125.971 Y106.034 E.00879
G1 X125.447 Y105.51 E.02538
G1 X125.448 Y106.093 E.01995
G1 X125.721 Y106.366 E.01324
M204 S1000
; stop printing object testing_block id:0 copy 0
M106 S84.15
;LAYER_CHANGE
;Z:0.3
;HEIGHT:0.1
;BEFORE_LAYER_CHANGE
G92 E0.0
;0.3


;WIPE_START
G1 F8640
G1 X125.448 Y106.093 E-.08935
G1 X125.447 Y105.51 E-.13463
G1 X125.971 Y106.034 E-.17123
G1 X126.196 Y105.91 E-.05933
G1 X126.375 Y105.856 E-.04314
G1 X125.571 Y105.052 E-.26232
;WIPE_END
G1 E-.04 F2100
G1 Z.6 F720
;AFTER_LAYER_CHANGE
;0.3
M104 S210 ; set temperature
G1 X130.276 Y100.348 F10800
G1 Z.3 F720
G1 E.8 F2100
;TYPE:Skirt/Brim
;WIDTH:0.42
G1 F2371
G1 X133.214 Y103.286 E.06885
G1 X134.011 Y104.639 E.02601
G1 X134.131 Y105.5 E.01441
G1 X134.131 Y112.5 E.11599
G1 X133.738 Y114.02 E.02601
G1 X132.656 Y115.158 E.02601
G1 X131 Y115.631 E.02853
G1 X124.56 Y115.62 E.10671
G1 X123.522 Y115.51 E.0173
M73 Q6 S8
G1 X122.474 Y115.274 E.01779
G1 X121.473 Y114.921 E.01759
G1 X120.514 Y114.452 E.01769
G1 X119.621 Y113.878 E.01759
G1 X118.805 Y113.207 E.0175
G1 X118.072 Y112.447 E.0175
G1 X117.422 Y111.593 E.01778
G1 X116.888 Y110.689 E.0174
G1 X116.452 Y109.708 E.01778
M73 P6 R8
G1 X116.025 Y108.175 E.02637
G1 X115.87 Y106.591 E.02637
G1 X115.869 Y100.5 E.10093
G1 X116.262 Y98.98 E.02601
G1 X117.344 Y97.842 E.02601
G1 X119 Y97.369 E.02853
G1 X126 Y97.369 E.11599
G1 X127.52 Y97.762 E.02601
G1 X128.214 Y98.286 E.01441
G1 X130.234 Y100.305 E.04732
G1 X129.967 Y100.572 F10800
G1 F2371
G1 X132.947 Y103.553 E.06984
G1 X133.754 Y105.5 E.03493
G1 X133.754 Y112.5 E.11599
G1 X133.361 Y113.917 E.02437
G1 X132.295 Y114.931 E.02437
G1 X131 Y115.254 E.02212
G1 X124.411 Y115.234 E.10917
G1 X123.076 Y115.039 E.02236
G1 X121.947 Y114.703 E.01952
G1 X121.154 Y114.363 E.0143
G1 X120.257 Y113.857 E.01706
G1 X119.444 Y113.264 E.01667
G1 X118.688 Y112.565 E.01706
G1 X118.027 Y111.791 E.01687
G1 X117.481 Y110.981 E.01619
G1 X116.747 Y109.418 E.0286
G1 X116.366 Y107.941 E.02528
G1 X116.246 Y106.5 E.02396
G1 X116.246 Y100.5 E.09942
G1 X116.639 Y99.083 E.02437
G1 X117.705 Y98.069 E.02437
G1 X119 Y97.746 E.02212
G1 X126 Y97.746 E.11599
G1 X127.947 Y98.553 E.03493
G1 X129.924 Y100.529 E.04633
G1 X129.658 Y100.796 F10800
G1 F2371
G1 X132.681 Y103.819 E.07084
G1 X133.377 Y105.5 E.03015
G1 X133.377 Y112.5 E.11599
G1 X132.985 Y113.807 E.02261
G1 X131.94 Y114.683 E.02261
G1 X131 Y114.877 E.0159
G1 X124.582 Y114.866 E.10634
G1 X123.493 Y114.739 E.01816
G1 X122.211 Y114.398 E.02198
G1 X120.752 Y113.719 E.02667
G1 X119.943 Y113.177 E.01614
G1 X119.202 Y112.545 E.01614
G1 X118.55 Y111.844 E.01587
G1 X117.964 Y111.045 E.01641
G1 X117.491 Y110.212 E.01587
G1 X117.105 Y109.3 E.01641
G1 X116.739 Y107.886 E.02419
G1 X116.623 Y106.5 E.02305
G1 X116.623 Y100.5 E.09942
G1 X117.015 Y99.193 E.02261
G1 X118.06 Y98.317 E.02261
G1 X119 Y98.123 E.0159
G1 X126 Y98.123 E.11599
G1 X127.681 Y98.819 E.03015
G1 X129.615 Y100.754 E.04533
; printing object testing_block id:0 copy 0
;WIPE_START
G1 F8640
G1 X131.943 Y103.081 E-.76
;WIPE_END
G1 E-.04 F2100
G1 Z.7 F720
G1 X128.686 Y106.749 F10800
G1 Z.3 F720
G1 E.8 F2100
M204 S600
;TYPE:Perimeter
;WIDTH:0.45
G1 F1500
G1 X128.856 Y106.832 E.00338
G1 X129.284 Y107.168 E.00969
G1 X129.631 Y107.586 E.00969
G1 X129.881 Y108.068 E.00967
G1 X130.016 Y108.556 E.00903
G1 X130.053 Y108.879 E.00578
G1 X130.025 Y109.407 E.00942
G1 X129.882 Y109.931 E.00967
G1 X129.649 Y110.381 E.00903
G1 X129.458 Y110.643 E.00578
G1 X129.079 Y111.011 E.00942
G1 X128.618 Y111.3 E.00969
G1 X128.107 Y111.484 E.00969
G1 X127.568 Y111.556 E.00969
G1 X127.026 Y111.513 E.00969
G1 X126.506 Y111.356 E.00969
G1 X126.03 Y111.093 E.00969
G1 X125.621 Y110.735 E.00969
G1 X125.297 Y110.299 E.00967
G1 X125.087 Y109.838 E.00903
G1 X124.999 Y109.526 E.00578
G1 X124.943 Y109 E.00942
G1 X125.001 Y108.459 E.00969
G1 X125.171 Y107.944 E.00967
G1 X125.427 Y107.507 E.00903
G1 X125.632 Y107.256 E.00578
G1 X126.03 Y106.907 E.00942
G1 X126.506 Y106.644 E.00969
G1 X127.025 Y106.487 E.00967
